X:1
T:The trip to Galway
C:anon.
L:1/8
M:4/4
I:linebreak $
K:C
V:1 treble 
V:1
 .abc_B | AFD DFA z2 | cdc AGF z2 | (E/F/G) (D C)DC z2 | EFG Ac=B z2 | AFD DF(G z2 |$ %6
 A)=B^c d2 e z2 | fed ed(c z2 | A)dd d2 :| x8 | e | fed afd z2 | (d/e/f) (g a)fd z2 |$ edc gec z2 | %14
 (c/d/e) (f g)fe z2 | fed edc z2 | (d/g/f) (d c)AG z2 | FGA c=B(C z2 | A)dd d2 :| %19
